icons/sparkle-16.svg

<svg width="16" height="16" viewBox="0 0 16 16" fill="none" xmlns="http://www.w3.org/2000/svg">
<g clip-path="url(#clip0_8687_112292)">
<path d="M7.53048 1.28247C7.69064 0.844999 8.30936 0.844999 8.46952 1.28247L8.94752 2.58808C9.70629 4.66061 11.3394 6.29372 13.4119 7.05248L14.7175 7.53048C15.155 7.69064 15.155 8.30936 14.7175 8.46952L13.4119 8.94752C11.3394 9.70629 9.70628 11.3394 8.94752 13.4119L8.46952 14.7175C8.30936 15.155 7.69064 15.155 7.53048 14.7175L7.05248 13.4119C6.29371 11.3394 4.66061 9.70628 2.58808 8.94752L1.28247 8.46952C0.844999 8.30936 0.844999 7.69064 1.28247 7.53048L2.58808 7.05248C4.66061 6.29371 6.29372 4.66061 7.05248 2.58808L7.53048 1.28247Z" fill="black"/>
</g>
<defs>
<clipPath id="clip0_8687_112292">
<rect width="16" height="16" fill="white"/>
</clipPath>
</defs>
</svg>

<svg xmlns="http://www.w3.org/2000/svg" width="16" height="16" viewBox="0 0 16 16"><path d="M7.53 1.282a.5.5 0 0 1 .94 0l.478 1.306a7.492 7.492 0 0 0 4.464 4.464l1.305.478a.5.5 0 0 1 0 .94l-1.305.478a7.492 7.492 0 0 0-4.464 4.464l-.478 1.305a.5.5 0 0 1-.94 0l-.478-1.305a7.492 7.492 0 0 0-4.464-4.464L1.282 8.47a.5.5 0 0 1 0-.94l1.306-.478a7.492 7.492 0 0 0 4.464-4.464Z"/></svg>
